X:72
T:Morris simple chords 18
M:3/4
L:1/8
K:G
d2 [gG,B,D]f ge | d2 g2 [aA,CE]g | fe d4 | [c'2C,2E,2G,2] a2 b2 | g2 [aD,F,A,]g fe |
d4 [gE,G,B,]f | ge d2 g2 | [aC,E,G,]g fe d4 | [c'C,E,G,]b ag |
fd ef [g2G,2B,2D2] | b2 g2 d2 | [gG,B,D]f ge d2 | g2 [aA,CE]g fe |
d4 [c'2C,2E,2G,2] | a2 b2 g2 | [aD,F,A,]g fe d4 | [gE,G,B,]f ge |
d2 g2 [aC,E,G,]g | fe d4 | [c'C,E,G,]b ag fd | ef [g2G,2B,2D2] b2 |
g2 |


